cssgg/pin-bottom.svg

<svg
  width="24"
  height="24"
  viewBox="0 0 24 24"
  fill="none"
  xmlns="http://www.w3.org/2000/svg"
>
  <path
    d="M12 11C13.1046 11 14 10.1046 14 9C14 7.89543 13.1046 7 12 7C10.8954 7 10 7.89543 10 9C10 10.1046 10.8954 11 12 11Z"
    fill="currentColor"
  />
  <path
    fill-rule="evenodd"
    clip-rule="evenodd"
    d="M18 9C18 11.973 15.8377 14.441 13 14.917V20H16C16.5523 20 17 20.4477 17 21C17 21.5523 16.5523 22 16 22H8C7.44772 22 7 21.5523 7 21C7 20.4477 7.44772 20 8 20H11V14.917C8.16229 14.441 6 11.973 6 9C6 5.68629 8.68629 3 12 3C15.3137 3 18 5.68629 18 9ZM12 13C14.2091 13 16 11.2091 16 9C16 6.79086 14.2091 5 12 5C9.79086 5 8 6.79086 8 9C8 11.2091 9.79086 13 12 13Z"
    fill="currentColor"
  />
</svg>

<svg viewBox="0 0 24 24" xmlns="http://www.w3.org/2000/svg"><g><path d="M12 11c1.1 0 2-.9 2-2 0-1.11-.9-2-2-2 -1.11 0-2 .89-2 2 0 1.1.89 2 2 2Z"/><path fill-rule="evenodd" d="M18 9c0 2.97-2.17 5.44-5 5.917V20h3c.55 0 1 .44 1 1 0 .55-.45 1-1 1H8c-.56 0-1-.45-1-1 0-.56.44-1 1-1h3v-5.083C8.16 14.437 6 11.96 6 9c0-3.32 2.68-6 6-6 3.31 0 6 2.68 6 6Zm-6 4c2.2 0 4-1.8 4-4 0-2.21-1.8-4-4-4C9.79 5 8 6.79 8 9c0 2.2 1.79 4 4 4Z"/></g></svg>
